dist/img/icons/security/message.svg

<svg width="26" height="26" viewBox="0 0 26 26" fill="none" xmlns="http://www.w3.org/2000/svg">
<path d="M20.8993 24.1176C20.7771 24.1176 20.6562 24.075 20.5591 23.9927L15.2893 19.5253H3.61427C1.62134 19.5252 0 17.8949 0 15.8909V5.51755C0 3.51354 1.62134 1.88318 3.61427 1.88318H22.3857C24.3787 1.88318 26 3.51359 26 5.51755V15.8909C26 17.8949 24.3787 19.5252 22.3857 19.5252H21.4269V23.587C21.4269 23.7935 21.3078 23.9812 21.1217 24.0681C21.0506 24.1013 20.9747 24.1176 20.8993 24.1176ZM3.61427 2.9444C2.20326 2.9444 1.05533 4.0987 1.05533 5.51755V15.8909C1.05533 17.3097 2.20326 18.464 3.61427 18.464H15.482C15.6065 18.464 15.727 18.5083 15.8222 18.5889L20.3715 22.4457V18.9946C20.3715 18.7016 20.6078 18.464 20.8992 18.464H22.3857C23.7967 18.464 24.9447 17.3097 24.9447 15.8909V5.51755C24.9447 4.0987 23.7967 2.9444 22.3857 2.9444H3.61427Z" fill="white"/>
<path d="M21.4986 7.82539H4.50115C4.20974 7.82539 3.97351 7.58778 3.97351 7.29478C3.97351 7.00172 4.20974 6.76416 4.50115 6.76416H21.4985C21.7899 6.76416 22.0262 7.00172 22.0262 7.29478C22.0262 7.58778 21.79 7.82539 21.4986 7.82539Z" fill="white"/>
<path d="M21.4986 11.2231H4.50115C4.20974 11.2231 3.97351 10.9855 3.97351 10.6925C3.97351 10.3994 4.20974 10.1619 4.50115 10.1619H21.4985C21.7899 10.1619 22.0262 10.3994 22.0262 10.6925C22.0262 10.9855 21.79 11.2231 21.4986 11.2231Z" fill="white"/>
<path d="M21.4986 14.6209H4.50115C4.20974 14.6209 3.97351 14.3833 3.97351 14.0903C3.97351 13.7973 4.20974 13.5597 4.50115 13.5597H21.4985C21.7899 13.5597 22.0262 13.7972 22.0262 14.0903C22.0262 14.3833 21.79 14.6209 21.4986 14.6209Z" fill="white"/>
</svg>

<svg width="26" height="26" fill="none" xmlns="http://www.w3.org/2000/svg"><path d="M20.9 24.118a.526.526 0 01-.34-.125l-5.27-4.468H3.613C1.621 19.525 0 17.895 0 15.891V5.518c0-2.004 1.621-3.635 3.614-3.635h18.772c1.993 0 3.614 1.63 3.614 3.635V15.89c0 2.004-1.621 3.634-3.614 3.634h-.96v4.062a.53.53 0 01-.527.53zM3.613 2.944a2.569 2.569 0 00-2.559 2.574V15.89a2.569 2.569 0 002.56 2.573h11.867c.125 0 .245.044.34.125l4.55 3.857v-3.451a.53.53 0 01.527-.531h1.487a2.569 2.569 0 002.559-2.573V5.518a2.569 2.569 0 00-2.56-2.574H3.616z" fill="#fff"/><path d="M21.499 7.825H4.5a.53.53 0 01-.527-.53.53.53 0 01.527-.53h17a.53.53 0 01.527.53.53.53 0 01-.527.53zm0 3.398H4.5a.53.53 0 01-.527-.53.53.53 0 01.527-.531h17a.53.53 0 01.527.53.53.53 0 01-.527.531zm0 3.397H4.5a.53.53 0 01-.527-.53.53.53 0 01.527-.53h17a.53.53 0 01.527.53.53.53 0 01-.527.53z" fill="#fff"/></svg>
